apps/penxle.com/src/assets/icons/bell-outline.svg

<svg fill="currentColor" viewBox="0 0 18 20" xmlns="http://www.w3.org/2000/svg">
  <path
    d="M17.7974 16C17.6674 16.2291 17.4786 16.4194 17.2505 16.5512C17.0225 16.683 16.7634 16.7517 16.4999 16.75H12.674C12.501 17.5967 12.0408 18.3577 11.3713 18.9042C10.7018 19.4507 9.86414 19.7492 8.99993 19.7492C8.13572 19.7492 7.29803 19.4507 6.62855 18.9042C5.95908 18.3577 5.4989 17.5967 5.32587 16.75H1.49993C1.23624 16.7496 0.977313 16.6798 0.749232 16.5475C0.521151 16.4151 0.331981 16.225 0.200788 15.9963C0.0695954 15.7676 0.00101624 15.5083 0.00196279 15.2446C0.00290934 14.9809 0.0733482 14.7222 0.20618 14.4944C0.726492 13.5981 1.49993 11.0631 1.49993 7.75C1.49993 5.76088 2.29011 3.85322 3.69663 2.4467C5.10315 1.04018 7.01081 0.25 8.99993 0.25C10.9891 0.25 12.8967 1.04018 14.3032 2.4467C15.7098 3.85322 16.4999 5.76088 16.4999 7.75C16.4999 11.0622 17.2743 13.5981 17.7946 14.4944C17.9288 14.7225 17.9997 14.9822 18.0002 15.2468C18.0007 15.5114 17.9307 15.7714 17.7974 16ZM11.1206 16.75H6.8793C7.03469 17.1882 7.322 17.5675 7.70174 17.8358C8.08148 18.104 8.535 18.248 8.99993 18.248C9.46486 18.248 9.91838 18.104 10.2981 17.8358C10.6779 17.5675 10.9652 17.1882 11.1206 16.75ZM16.4999 15.25C15.7752 14.0059 14.9999 11.1297 14.9999 7.75C14.9999 6.1587 14.3678 4.63258 13.2426 3.50736C12.1174 2.38214 10.5912 1.75 8.99993 1.75C7.40863 1.75 5.88251 2.38214 4.75729 3.50736C3.63207 4.63258 2.99993 6.1587 2.99993 7.75C2.99993 11.1306 2.22368 14.0069 1.49993 15.25H16.4999Z"
  />
</svg>

<svg xmlns="http://www.w3.org/2000/svg" fill="currentColor" viewBox="0 0 18 20">
  <path
    d="M17.797 16a1.48 1.48 0 0 1-1.297.75h-3.826a3.75 3.75 0 0 1-7.348 0H1.5a1.5 1.5 0 0 1-1.294-2.256c.52-.896 1.294-3.43 1.294-6.744a7.5 7.5 0 0 1 15 0c0 3.312.774 5.848 1.295 6.744A1.49 1.49 0 0 1 17.797 16Zm-6.676.75H6.879a2.25 2.25 0 0 0 4.242 0Zm5.379-1.5c-.725-1.244-1.5-4.12-1.5-7.5a6 6 0 1 0-12 0c0 3.38-.776 6.257-1.5 7.5h15Z"
  />
</svg>
